public/icons/question-circle-outline-sm.svg

<svg role="img" width="24" height="24" viewBox="0 0 24 24" fill="none" xmlns="http://www.w3.org/2000/svg">
<path fill-rule="evenodd" clip-rule="evenodd" d="M12 22C17.5228 22 22 17.5228 22 12C22 6.47715 17.5228 2 12 2C6.47715 2 2 6.47715 2 12C2 17.5228 6.47715 22 12 22ZM12 23C18.0751 23 23 18.0751 23 12C23 5.92487 18.0751 1 12 1C5.92487 1 1 5.92487 1 12C1 18.0751 5.92487 23 12 23ZM15 9.5C15 10.6548 14.1911 11.3666 13.4524 12.0166C12.8319 12.5626 12.2609 13.0651 12.2609 13.75V14H11.087V13.75C11.087 12.6981 11.8446 12.0611 12.563 11.4572C13.2105 10.9129 13.8261 10.3953 13.8261 9.62497C13.8261 8.62497 13.0435 8.12495 12 8.12495C10.8261 8.12495 10.1739 8.87498 10.1739 9.87498H9C9 8.24998 10.1739 7 12.1304 7C13.8261 7 15 8 15 9.5ZM12.7869 16C12.7869 16.625 12.2652 17 11.7434 17C11.2217 17 10.7 16.625 10.7 16C10.7 15.375 11.2217 15 11.7434 15C12.3956 15 12.7869 15.5 12.7869 16Z" fill="currentColor"/>
</svg>

<svg xmlns="http://www.w3.org/2000/svg" width="24" height="24" fill="none" viewBox="0 0 24 24">
  <path fill="currentColor" fill-rule="evenodd" d="M12 22c5.5228 0 10-4.4772 10-10 0-5.5229-4.4772-10-10-10C6.4771 2 2 6.4771 2 12c0 5.5228 4.4771 10 10 10Zm0 1c6.0751 0 11-4.9249 11-11S18.0751 1 12 1 1 5.9249 1 12s4.9249 11 11 11Zm3-13.5c0 1.1548-.8089 1.8666-1.5476 2.5166-.6205.546-1.1915 1.0485-1.1915 1.7334V14H11.087v-.25c0-1.0519.7576-1.6889 1.476-2.2928.6475-.5443 1.2631-1.0619 1.2631-1.8322 0-1-.7826-1.5-1.8261-1.5-1.1739 0-1.8261.75-1.8261 1.75H9C9 8.25 10.1739 7 12.1304 7 13.8261 7 15 8 15 9.5ZM12.7869 16c0 .625-.5217 1-1.0435 1-.5217 0-1.0434-.375-1.0434-1s.5217-1 1.0434-1c.6522 0 1.0435.5 1.0435 1Z" clip-rule="evenodd"/>
</svg>
